icon/mi/building.svg

<svg xmlns="http://www.w3.org/2000/svg" width="15" height="15"><path d="M3 2v11h5v-3h3v3h1V2H3zm4 10H4v-2h3v2zm0-3H4V7h3v2zm0-3H4V4h3v2zm4 3H8V7h3v2zm0-3H8V4h3v2z"/></svg>

<?xml version="1.0" encoding="UTF-8"?>
<svg version="1.1" id="building" xmlns="http://www.w3.org/2000/svg" viewBox="0 0 15 15" height="1em" width="1em">
  <path d="M3,2v11h5v-3h3v3h1V2H3z M7,12H4v-2h3V12z M7,9H4V7h3V9z M7,6H4V4h3V6z M11,9H8V7h3V9z M11,6H8V4h3V6z"/>
</svg>
